swiss/communes/0085.svg

<?xml version="1.0" encoding="UTF-8" standalone="no"?>
<!-- Created with Inkscape (http://www.inkscape.org/) -->
<svg
   xmlns:svg="http://www.w3.org/2000/svg"
   xmlns="http://www.w3.org/2000/svg"
   version="1.0"
   width="207.14026"
   height="242.63255"
   id="svg2780">
  <defs
     id="defs2782" />
  <g
     transform="translate(-20.215708,-811.89522)"
     id="layer1">
    <path
       d="M 21.215708,812.89522 L 24.945527,969.58617 C 27.609677,1081.5083 219.96199,1081.5083 222.62615,969.58617 L 226.35597,812.89522 L 21.215708,812.89522 z"
       id="path3282"
       style="fill:#ffffff;fill-opacity:1;fill-rule:evenodd;stroke:#000000;stroke-width:2;stroke-linecap:butt;stroke-miterlimit:4;stroke-dashoffset:0;stroke-opacity:1" />
    <g
       transform="translate(-0.229909,0)"
       id="g3613">
      <path
         d="M 186.60535,962.00942 C 181.08739,911.43614 161.04499,868.69925 125.68663,828.81504 C 124.72047,827.72513 123.26154,827.75907 122.31748,828.81504 C 86.837631,868.49934 66.944101,911.43614 61.426146,962.00942 C 103.21794,979.21203 144.859,978.30802 186.60535,962.00942 z"
         id="path4911"
         style="fill:#151518;fill-opacity:1;fill-rule:evenodd;stroke:#ffffff;stroke-width:1px;stroke-linecap:butt;stroke-linejoin:round;stroke-opacity:1" />
      <path
         d="M 62.054108,957.71794 C 103.4169,974.5651 144.63327,973.68752 185.95147,957.71484"
         id="path4823"
         style="fill:#151518;fill-opacity:1;fill-rule:evenodd;stroke:#ffffff;stroke-width:1px;stroke-linecap:butt;stroke-linejoin:round;stroke-opacity:1" />
      <path
         d="M 145.56505,1011.1523 C 147.59956,972.05331 142.2083,931.58651 126.4819,897.08552 C 125.25145,894.38613 122.40709,894.40185 121.15386,897.08552 C 104.99204,931.69463 101.21863,971.33494 102.19998,1010.4132 C 114.4371,1014.2509 133.5696,1013.4599 145.56505,1011.1523 z"
         id="path4914"
         style="fill:#151518;fill-opacity:1;fill-rule:evenodd;stroke:#ffffff;stroke-width:1px;stroke-linecap:butt;stroke-linejoin:miter;stroke-opacity:1" />
      <path
         d="M 136.66485,998.93424 L 135.85692,966.53843 L 129.89846,970.33656 L 131.41333,1002.3973 L 136.66485,998.93424 z"
         id="path4916"
         style="fill:#151518;fill-opacity:1;fill-rule:evenodd;stroke:#ffffff;stroke-width:0.99921274;stroke-linecap:butt;stroke-linejoin:round;stroke-miterlimit:4;stroke-dasharray:none;stroke-opacity:1" />
      <path
         d="M 124.01574,1011.4458 C 113.31497,1011.4458 104.29727,1009.4207 104.29727,1006.3072 C 104.29727,1003.3061 112.57853,1002.8442 116.61816,1002.3973 L 111.36664,998.93424 C 107.93295,999.60457 94.198183,1001.7841 94.198183,1007.2008 C 94.198183,1012.7293 107.77134,1016.1376 124.01574,1016.1376 C 140.26015,1016.1376 153.8333,1012.7293 153.8333,1007.2008 C 153.8333,1001.7841 140.09853,999.60457 136.66485,998.93424 L 131.41333,1002.3973 C 135.45296,1002.8442 143.73421,1003.3061 143.73421,1006.3072 C 143.73421,1009.4207 134.71651,1011.4458 124.01574,1011.4458 z"
         id="path4918"
         style="fill:#151518;fill-opacity:1;fill-rule:evenodd;stroke:#ffffff;stroke-width:0.99921274;stroke-linecap:butt;stroke-linejoin:round;stroke-miterlimit:4;stroke-dasharray:none;stroke-opacity:1" />
      <path
         d="M 151.6115,971.78879 L 153.8333,1007.2008 C 153.8333,1001.7841 140.09853,999.60457 136.66485,998.93424 L 135.85692,966.53843 C 139.89655,966.98527 148.58178,969.13833 151.6115,971.78879 z"
         id="path4920"
         style="fill:#151518;fill-opacity:1;fill-rule:evenodd;stroke:#ffffff;stroke-width:0.99921274;stroke-linecap:butt;stroke-linejoin:round;stroke-miterlimit:4;stroke-dasharray:none;stroke-opacity:1" />
      <path
         d="M 111.36664,998.93424 L 112.17456,966.53843 L 118.13303,970.33656 L 116.61816,1002.3973 L 111.36664,998.93424 z"
         id="path4922"
         style="fill:#151518;fill-opacity:1;fill-rule:evenodd;stroke:#ffffff;stroke-width:0.99921274;stroke-linecap:butt;stroke-linejoin:round;stroke-miterlimit:4;stroke-dasharray:none;stroke-opacity:1" />
      <path
         d="M 96.419989,971.78879 L 94.198191,1007.2008 C 94.198191,1001.7841 107.93296,999.60457 111.36664,998.93424 L 112.17456,966.53843 C 108.13494,966.98527 99.449713,969.13833 96.419989,971.78879 z"
         id="path4924"
         style="fill:#151518;fill-opacity:1;fill-rule:evenodd;stroke:#ffffff;stroke-width:0.99921274;stroke-linecap:butt;stroke-linejoin:round;stroke-miterlimit:4;stroke-dasharray:none;stroke-opacity:1" />
    </g>
  </g>
</svg>

<svg xmlns="http://www.w3.org/2000/svg" version="1.0" width="207.14" height="242.633"><path d="m21.216 812.895 3.73 156.691c2.664 111.922 195.016 111.922 197.68 0l3.73-156.69H21.216z" style="fill:#fff;fill-opacity:1;fill-rule:evenodd;stroke:#000;stroke-width:2;stroke-linecap:butt;stroke-miterlimit:4;stroke-dashoffset:0;stroke-opacity:1" transform="translate(-20.216 -811.895)"/><path d="M186.605 962.01c-5.518-50.574-25.56-93.31-60.918-133.195-.967-1.09-2.425-1.056-3.37 0-35.48 39.684-55.373 82.621-60.89 133.194 41.79 17.203 83.432 16.299 125.178 0z" style="fill:#151518;fill-opacity:1;fill-rule:evenodd;stroke:#fff;stroke-width:1px;stroke-linecap:butt;stroke-linejoin:round;stroke-opacity:1" transform="translate(-20.446 -811.895)"/><path d="M62.054 957.718c41.363 16.847 82.58 15.97 123.897-.003" style="fill:#151518;fill-opacity:1;fill-rule:evenodd;stroke:#fff;stroke-width:1px;stroke-linecap:butt;stroke-linejoin:round;stroke-opacity:1" transform="translate(-20.446 -811.895)"/><path d="M145.565 1011.152c2.035-39.099-3.357-79.565-19.083-114.066-1.23-2.7-4.075-2.684-5.328 0-16.162 34.609-19.935 74.249-18.954 113.327 12.237 3.838 31.37 3.047 43.365.74z" style="fill:#151518;fill-opacity:1;fill-rule:evenodd;stroke:#fff;stroke-width:1px;stroke-linecap:butt;stroke-linejoin:miter;stroke-opacity:1" transform="translate(-20.446 -811.895)"/><path d="m136.665 998.934-.808-32.396-5.959 3.799 1.515 32.06 5.252-3.463z" style="fill:#151518;fill-opacity:1;fill-rule:evenodd;stroke:#fff;stroke-width:.99921274;stroke-linecap:butt;stroke-linejoin:round;stroke-miterlimit:4;stroke-dasharray:none;stroke-opacity:1" transform="translate(-20.446 -811.895)"/><path d="M124.016 1011.446c-10.701 0-19.719-2.025-19.719-5.139 0-3 8.282-3.463 12.321-3.91l-5.251-3.463c-3.434.67-17.169 2.85-17.169 8.267 0 5.528 13.573 8.937 29.818 8.937 16.244 0 29.817-3.409 29.817-8.937 0-5.417-13.734-7.596-17.168-8.267l-5.252 3.463c4.04.447 12.321.91 12.321 3.91 0 3.114-9.017 5.139-19.718 5.139z" style="fill:#151518;fill-opacity:1;fill-rule:evenodd;stroke:#fff;stroke-width:.99921274;stroke-linecap:butt;stroke-linejoin:round;stroke-miterlimit:4;stroke-dasharray:none;stroke-opacity:1" transform="translate(-20.446 -811.895)"/><path d="m151.612 971.789 2.221 35.412c0-5.417-13.734-7.596-17.168-8.267l-.808-32.396c4.04.447 12.725 2.6 15.755 5.25zM111.367 998.934l.808-32.396 5.958 3.799-1.515 32.06-5.251-3.463z" style="fill:#151518;fill-opacity:1;fill-rule:evenodd;stroke:#fff;stroke-width:.99921274;stroke-linecap:butt;stroke-linejoin:round;stroke-miterlimit:4;stroke-dasharray:none;stroke-opacity:1" transform="translate(-20.446 -811.895)"/><path d="m96.42 971.789-2.222 35.412c0-5.417 13.735-7.596 17.169-8.267l.808-32.396c-4.04.447-12.725 2.6-15.755 5.25z" style="fill:#151518;fill-opacity:1;fill-rule:evenodd;stroke:#fff;stroke-width:.99921274;stroke-linecap:butt;stroke-linejoin:round;stroke-miterlimit:4;stroke-dasharray:none;stroke-opacity:1" transform="translate(-20.446 -811.895)"/></svg>
